apex/img/rank-icon.svg

<svg width="24" height="24" viewBox="0 0 24 24" fill="none" xmlns="http://www.w3.org/2000/svg">
<path d="M23.9214 22.3603L22.6001 19.7842L23.8862 17.7907C24.1552 17.3743 23.9195 16.8171 23.4334 16.7201L21.6395 16.361V19.6688C21.6395 20.8317 20.6929 21.778 19.5294 21.778C19.2899 21.778 19.0537 21.7377 18.8272 21.6575V21.9282C18.8272 22.2632 19.0634 22.5515 19.3925 22.6176L23.1578 23.3703C23.7339 23.4857 24.1891 22.8825 23.9214 22.3603Z" fill="white"/>
<path d="M2.35909 19.6688V16.3616L0.566674 16.7201C0.0805288 16.8171 -0.155128 17.3745 0.113488 17.7907L1.39962 19.7842L0.0786978 22.3603C-0.188819 22.8823 0.266198 23.4856 0.842248 23.3703L4.60763 22.6175C4.93612 22.5514 5.17287 22.2632 5.17287 21.9282V21.6572C4.94546 21.7374 4.70889 21.7786 4.46883 21.7786C3.32186 21.7786 2.35909 20.8522 2.35909 19.6688Z" fill="white"/>
<path d="M20.2333 19.6686V15.1501C20.2333 14.8418 20.0334 14.5757 19.7507 14.4825C17.2531 13.6097 14.6453 13.1671 11.9995 13.1671C9.35362 13.1671 6.74584 13.6097 4.24829 14.4825C3.96558 14.5757 3.76563 14.8418 3.76563 15.1501V19.6686C3.76563 20.161 4.25745 20.4972 4.7132 20.3281C7.06096 19.5078 9.51218 19.0918 11.9995 19.0918C14.4868 19.0918 16.9382 19.5078 19.2859 20.3281C19.738 20.4959 20.2333 20.165 20.2333 19.6686Z" fill="white"/>
<path d="M16.9066 8.3275C16.8316 8.55876 16.8867 8.81236 17.0509 8.99162L18.1691 10.2115L17.9815 11.8558C17.954 12.0971 18.0585 12.3348 18.255 12.4776C18.4519 12.6204 18.71 12.6464 18.9312 12.5455L20.4367 11.8589L21.9424 12.5455C21.9494 12.5488 22.2872 12.7182 22.6184 12.4776C22.8151 12.3348 22.9196 12.0971 22.892 11.8558L22.7045 10.2115L23.8227 8.99162C23.9869 8.81236 24.0421 8.55876 23.9668 8.3275C23.8917 8.09642 23.698 7.92357 23.4598 7.87523L21.8382 7.54564L21.0236 6.10515C20.904 5.89366 20.6797 5.76274 20.4367 5.76274C20.1936 5.76274 19.9694 5.89348 19.8497 6.10515L19.035 7.54564L17.4135 7.87523C17.1754 7.92357 16.9817 8.09642 16.9066 8.3275Z" fill="white"/>
<path d="M8.69471 7.42917L8.36512 10.3171C8.33638 10.569 8.44532 10.8168 8.6504 10.9656C8.85548 11.1147 9.12464 11.1418 9.35535 11.0367L12.0001 9.83058L14.6447 11.0367C14.652 11.04 15.0043 11.2167 15.3497 10.9656C15.5547 10.8168 15.6639 10.569 15.6351 10.3171L15.3053 7.42917L17.2697 5.28666C17.4411 5.09989 17.4986 4.83531 17.4202 4.59416C17.3418 4.35319 17.1399 4.17283 16.8916 4.12248L14.043 3.54369L12.6121 1.01337C12.4874 0.792724 12.2535 0.656311 12.0001 0.656311C11.7465 0.656311 11.5127 0.792724 11.388 1.01337L9.95722 3.54369L7.10848 4.12248C6.86019 4.17283 6.65822 4.35319 6.57985 4.59416C6.50167 4.83512 6.55898 5.09989 6.73037 5.28666L8.69471 7.42917Z" fill="white"/>
<path d="M1.29569 10.2115L1.108 11.8556C1.08054 12.0971 1.18509 12.3348 1.38156 12.4776C1.57822 12.6204 1.83658 12.6464 2.05777 12.5455L3.56326 11.8589L5.06894 12.5455C5.0759 12.5488 5.41373 12.7182 5.74497 12.4776C5.94162 12.3348 6.04618 12.0971 6.01853 11.8556L5.83103 10.2115L6.94925 8.99144C7.1135 8.81236 7.16861 8.55876 7.09354 8.3275C7.01828 8.09642 6.82456 7.92339 6.58652 7.87505L4.96475 7.54564L4.15012 6.10515C4.03055 5.89348 3.80625 5.76274 3.56326 5.76274C3.32028 5.76274 3.09598 5.89348 2.97641 6.10515L2.16178 7.54564L0.540011 7.87505C0.301974 7.92357 0.108248 8.09642 0.0329916 8.3275C-0.0420816 8.55876 0.0130332 8.81236 0.177279 8.99144L1.29569 10.2115Z" fill="white"/>
</svg>

<svg width="24" height="24" fill="none" xmlns="http://www.w3.org/2000/svg"><path d="M23.921 22.36l-1.32-2.576 1.285-1.993a.703.703 0 00-.453-1.07l-1.793-.36v3.308a2.112 2.112 0 01-2.813 1.988v.271c0 .335.236.623.565.69l3.766.752a.704.704 0 00.763-1.01zM2.36 19.669v-3.307l-1.793.358a.703.703 0 00-.454 1.07L1.4 19.785.079 22.36a.704.704 0 00.763 1.01l3.766-.753a.704.704 0 00.565-.689v-.27a2.11 2.11 0 01-2.814-1.988z" fill="#fff"/><path d="M20.233 19.669V15.15c0-.308-.2-.574-.482-.668a23.44 23.44 0 00-7.752-1.315c-2.645 0-5.253.443-7.75 1.316a.704.704 0 00-.483.667v4.519c0 .492.491.828.947.66A22.036 22.036 0 0112 19.091c2.488 0 4.94.416 7.287 1.236a.703.703 0 00.947-.66zM16.907 8.328a.675.675 0 00.144.664l1.118 1.22-.188 1.644a.674.674 0 00.95.69l1.506-.687 1.505.687c.007.003.345.172.676-.068a.674.674 0 00.274-.622l-.188-1.645 1.119-1.22a.674.674 0 00-.363-1.116l-1.622-.33-.814-1.44a.674.674 0 00-1.174 0l-.815 1.44-1.622.33a.674.674 0 00-.506.453zM8.695 7.43l-.33 2.887a.703.703 0 00.99.72L12 9.83l2.645 1.206c.007.003.36.18.705-.071a.703.703 0 00.285-.649l-.33-2.888 1.965-2.142a.703.703 0 00-.378-1.165l-2.849-.578-1.43-2.53a.703.703 0 00-1.225 0l-1.43 2.53-2.85.578a.703.703 0 00-.378 1.165l1.965 2.142zm-7.399 2.781l-.188 1.645a.675.675 0 00.95.69l1.505-.687 1.506.687c.007.003.345.172.676-.068a.674.674 0 00.274-.622L5.83 10.21l1.118-1.22a.674.674 0 00-.362-1.116l-1.622-.33-.815-1.44a.674.674 0 00-1.174 0l-.814 1.44-1.622.33A.675.675 0 00.176 8.99l1.119 1.22z" fill="#fff"/></svg>
